X: 1251
T: Come to the Dance
M:C|
L:1/8
R:Reel
B:O'Neill's 1251
N:Collected by Cronin
Z:Transcribed by Trish O'Neil
K:G
D2|GBdB cAFA|G2(ge) dBGB|cdec BcdB|ABcA GFED|
GBdB cAFA|.G(gfg) edBd|cedc BcdB|cdefg2||
d2|gdBd cBcd|edef gfga|bgaf gfed|egfag2(ga)|
bgaf gage|dBGB dBcd|egfa gedB|cdefg2||


